static/icons/icon-default.svg

<svg width="42" height="48" viewBox="0 0 42 48" xmlns="http://www.w3.org/2000/svg">
  <title>
    icon-default
  </title>
  <g fill-rule="nonzero" fill="#4A4A4A">
    <path d="M17.64 4.41h6.835c.66 0 1.2-.54 1.2-1.198v-1.88c0-.658-.54-1.198-1.2-1.198H17.64c-.658 0-1.198.54-1.198 1.2V3.21c0 .66.54 1.2 1.2 1.2zM21 5.97c-5.797 0-11.05 2.37-14.846 6.19l4.554 3.287c2.745-2.48 6.368-4.003 10.35-4.003 8.533 0 15.475 6.942 15.475 15.475 0 8.532-6.94 15.474-15.475 15.474-8.534 0-15.475-6.94-15.475-15.475 0-3.776 1.362-7.236 3.617-9.925l-3.42-4.423C2.24 16.325.054 21.366.054 26.92.054 38.47 9.45 47.866 21 47.866S41.946 38.47 41.946 26.92C41.946 15.367 32.55 5.97 21 5.97z"/>
    <path d="M21.158 30.364c-1.06 0-1.994-.508-2.602-1.283l-.006.01-7.57-9.79c-1.608 2.122-2.574 4.756-2.574 7.618 0 6.976 5.675 12.65 12.65 12.65 6.977 0 12.65-5.675 12.65-12.65 0-6.975-5.674-12.65-12.65-12.65-3.036 0-5.826 1.076-8.01 2.867l9.82 7.088-.007.008c.96.58 1.608 1.622 1.608 2.825 0 1.827-1.48 3.31-3.31 3.31z"/>
  </g>
</svg>

<?xml version="1.0" encoding="UTF-8"?>
<svg width="42px" height="48px" viewBox="0 0 42 48" version="1.1" xmlns="http://www.w3.org/2000/svg" xmlns:xlink="http://www.w3.org/1999/xlink">
    <!-- Generator: Sketch 42 (36781) - http://www.bohemiancoding.com/sketch -->
    <title>icon-default</title>
    <desc>Created with Sketch.</desc>
    <defs></defs>
    <g id="Page-1" stroke="none" stroke-width="1" fill="none" fill-rule="evenodd">
        <g id="icon-default" fill-rule="nonzero" fill="#4A4A4A">
            <g id="Layer_1">
                <g id="Group">
                    <path d="M17.641,4.411 L24.475,4.411 C25.134,4.411 25.674,3.871 25.674,3.212 L25.674,1.333 C25.674,0.674 25.134,0.134 24.475,0.134 L17.641,0.134 C16.982,0.134 16.442,0.674 16.442,1.333 L16.442,3.212 C16.441,3.871 16.981,4.411 17.641,4.411 Z" id="Shape"></path>
                    <path d="M21,5.971 C15.203,5.971 9.951,8.34 6.154,12.159 L10.708,15.447 C13.453,12.968 17.076,11.444 21.058,11.444 C29.591,11.444 36.533,18.386 36.533,26.919 C36.533,35.452 29.592,42.394 21.058,42.394 C12.524,42.394 5.583,35.453 5.583,26.919 C5.583,23.144 6.945,19.684 9.2,16.995 L5.78,12.572 C2.241,16.325 0.054,21.366 0.054,26.919 C0.054,38.47 9.45,47.867 21,47.867 C32.55,47.867 41.946,38.47 41.946,26.919 C41.946,15.368 32.55,5.971 21,5.971 Z" id="Shape"></path>
                    <path d="M21.158,30.364 C20.098,30.364 19.164,29.856 18.556,29.081 L18.55,29.089 L10.981,19.3 C9.372,21.422 8.406,24.056 8.406,26.918 C8.406,33.894 14.081,39.568 21.057,39.568 C28.033,39.568 33.707,33.893 33.707,26.918 C33.707,19.943 28.032,14.267 21.057,14.267 C18.02,14.267 15.23,15.344 13.047,17.135 L22.865,24.223 L22.859,24.231 C23.82,24.809 24.468,25.852 24.468,27.055 C24.469,28.882 22.988,30.364 21.158,30.364 Z" id="Shape"></path>
                </g>
            </g>
        </g>
    </g>
</svg>
